static/images/logos/trusted-by/intel.svg

<svg xmlns="http://www.w3.org/2000/svg" width="76" height="30" viewBox="0 0 76 30" fill="none">
    <g clip-path="url(#clip0_1895_40396)">
        <path d="M6.30346 0.90625H0.902344V6.30858H6.30346V0.90625Z" fill="#ADADB0"/>
        <path d="M6.16913 29.0497V9.57438H1.03711V29.0305H6.16913V29.0497ZM40.1519 29.242V24.4741C39.4023 24.4741 38.768 24.4356 38.3067 24.3587C37.7685 24.2818 37.3649 24.0896 37.0958 23.8204C36.8267 23.5512 36.6537 23.1667 36.5576 22.6477C36.4807 22.167 36.4423 21.5326 36.4423 20.7636V13.977H40.1519V9.57438H36.4423V1.99958H31.3103V20.8212C31.3103 22.4169 31.4448 23.7627 31.7139 24.8393C31.983 25.8967 32.4443 26.7619 33.0786 27.4155C33.7129 28.0692 34.5586 28.5306 35.5773 28.819C36.6153 29.1074 37.9223 29.242 39.4792 29.242H40.1519ZM69.5217 29.0497V0.5H64.3897V29.0497H69.5217ZM26.3704 11.4969C24.9481 9.95889 22.9491 9.18988 20.4119 9.18988C19.1818 9.18988 18.0477 9.43981 17.0482 9.93967C16.0295 10.4395 15.1838 11.1316 14.4918 12.016L14.2227 12.3813V12.0545V9.57438H9.16761V29.0305H14.2612V18.668V19.3793C14.2612 19.264 14.2612 19.1486 14.2612 19.0333C14.3188 17.2069 14.7609 15.8611 15.6067 14.9959C16.51 14.0731 17.6056 13.6117 18.855 13.6117C20.335 13.6117 21.4691 14.0731 22.2187 14.9575C22.9491 15.8419 23.3335 17.0915 23.3335 18.6872V18.7449V29.0305H28.504V17.9951C28.5232 15.2267 27.7928 13.035 26.3704 11.4969ZM61.7372 19.2832C61.7372 17.8798 61.4873 16.5724 61.0068 15.342C60.507 14.1308 59.8151 13.0542 58.9501 12.1314C58.0659 11.2085 57.0088 10.4972 55.7786 9.97812C54.5485 9.45903 53.1838 9.2091 51.7038 9.2091C50.3006 9.2091 48.9744 9.47826 47.7442 9.99734C46.5141 10.5357 45.4377 11.247 44.5343 12.1506C43.6309 13.0542 42.9005 14.1308 42.3816 15.3612C41.8434 16.5917 41.5935 17.9182 41.5935 19.3217C41.5935 20.7251 41.8434 22.0517 42.3431 23.2821C42.8429 24.5125 43.5541 25.5891 44.4382 26.4927C45.3224 27.3963 46.418 28.1269 47.6866 28.646C48.9552 29.1843 50.3583 29.4534 51.8575 29.4534C56.2015 29.4534 58.8924 27.4732 60.507 25.6276L56.8166 22.8207C56.0477 23.7435 54.2025 24.9931 51.896 24.9931C50.4544 24.9931 49.2627 24.6663 48.3593 23.9934C47.4559 23.3398 46.8409 22.4169 46.5141 21.2826L46.4564 21.1096H61.7372V19.2832ZM46.4949 17.4952C46.4949 16.0726 48.1287 13.5925 51.6461 13.5733C55.1636 13.5733 56.8166 16.0533 56.8166 17.476L46.4949 17.4952ZM75.3649 26.5889C75.2688 26.3582 75.1342 26.1659 74.9612 25.9929C74.7882 25.8198 74.596 25.6853 74.3654 25.5891C74.1347 25.493 73.8849 25.4353 73.635 25.4353C73.3659 25.4353 73.1352 25.493 72.9046 25.5891C72.6739 25.6853 72.4817 25.8198 72.3087 25.9929C72.1357 26.1659 72.0012 26.3582 71.9051 26.5889C71.809 26.8196 71.7513 27.0695 71.7513 27.3194C71.7513 27.5886 71.809 27.8193 71.9051 28.05C72.0012 28.2807 72.1357 28.4729 72.3087 28.646C72.4817 28.819 72.6739 28.9536 72.9046 29.0497C73.1352 29.1458 73.3851 29.2035 73.635 29.2035C73.9041 29.2035 74.1347 29.1458 74.3654 29.0497C74.596 28.9536 74.7882 28.819 74.9612 28.646C75.1342 28.4729 75.2688 28.2807 75.3649 28.05C75.461 27.8193 75.5186 27.5694 75.5186 27.3194C75.5186 27.0695 75.461 26.8196 75.3649 26.5889ZM75.0573 27.9346C74.9805 28.1269 74.8651 28.2999 74.7306 28.4345C74.596 28.5691 74.423 28.6844 74.2308 28.7613C74.0386 28.8382 73.8464 28.8767 73.6158 28.8767C73.4043 28.8767 73.1929 28.8382 73.0007 28.7613C72.8085 28.6844 72.6355 28.5691 72.5009 28.4345C72.3664 28.2999 72.2511 28.1269 72.1742 27.9346C72.0973 27.7424 72.0589 27.5501 72.0589 27.3194C72.0589 27.1079 72.0973 26.8965 72.1742 26.7042C72.2511 26.512 72.3664 26.3389 72.5009 26.2043C72.6355 26.0698 72.8085 25.9544 73.0007 25.8775C73.1929 25.8006 73.3851 25.7622 73.6158 25.7622C73.8272 25.7622 74.0386 25.8006 74.2308 25.8775C74.423 25.9544 74.596 26.0698 74.7306 26.2043C74.8651 26.3389 74.9805 26.512 75.0573 26.7042C75.1342 26.8965 75.1727 27.0887 75.1727 27.3194C75.1727 27.5501 75.1342 27.7424 75.0573 27.9346ZM73.981 27.4924C74.1347 27.4732 74.2501 27.4155 74.3462 27.3194C74.4423 27.2233 74.4999 27.0887 74.4999 26.8965C74.4999 26.685 74.4423 26.5312 74.3077 26.4158C74.1924 26.3005 73.981 26.2428 73.7311 26.2428H72.8854V28.4153H73.289V27.5309H73.5773L74.1155 28.4153H74.5384L73.981 27.4924ZM73.7695 27.1656C73.7119 27.1656 73.6542 27.1656 73.5773 27.1656H73.289V26.5504H73.5773C73.635 26.5504 73.6926 26.5504 73.7695 26.5504C73.8272 26.5504 73.8849 26.5696 73.9425 26.5889C74.0002 26.6081 74.0386 26.6465 74.0578 26.685C74.0963 26.7234 74.0963 26.7811 74.0963 26.858C74.0963 26.9349 74.0771 26.9926 74.0578 27.031C74.0194 27.0695 73.981 27.1079 73.9425 27.1272C73.8849 27.1464 73.8272 27.1656 73.7695 27.1656Z" fill="#ADADB0"/>
    </g>
    <defs>
        <clipPath id="clip0_1895_40396">
            <rect width="76" height="30" fill="white"/>
        </clipPath>
    </defs>
</svg>

<svg xmlns="http://www.w3.org/2000/svg" width="76" height="30" fill="none"><g fill="#ADADB0" clip-path="url(#a)"><path d="M6.303.906h-5.4V6.31h5.4V.906ZM6.17 29.05V9.574H1.036V29.03H6.17v.02Zm33.982.192v-4.768c-.75 0-1.384-.038-1.845-.115-.538-.077-.942-.27-1.211-.539-.27-.269-.442-.653-.538-1.172-.077-.481-.116-1.115-.116-1.884v-6.787h3.71V9.574h-3.71V2H31.31V20.82c0 1.596.135 2.942.404 4.018.269 1.058.73 1.923 1.365 2.577.634.653 1.48 1.115 2.498 1.403 1.038.288 2.345.423 3.902.423h.673Zm29.37-.192V.5H64.39v28.55h5.132ZM26.37 11.497c-1.422-1.538-3.42-2.307-5.958-2.307-1.23 0-2.364.25-3.364.75a7.261 7.261 0 0 0-2.556 2.076l-.27.365V9.575H9.169V29.03h5.093V18.667v.711-.346c.058-1.826.5-3.172 1.346-4.037.903-.923 1.999-1.384 3.248-1.384 1.48 0 2.614.461 3.364 1.345.73.885 1.114 2.134 1.114 3.73V29.03h5.171V17.995c.02-2.768-.711-4.96-2.134-6.498Zm35.367 7.786c0-1.403-.25-2.71-.73-3.941a10.55 10.55 0 0 0-2.057-3.21c-.884-.923-1.941-1.635-3.171-2.154-1.23-.519-2.595-.769-4.075-.769-1.403 0-2.73.27-3.96.788-1.23.539-2.306 1.25-3.21 2.154a10.027 10.027 0 0 0-2.152 3.21c-.539 1.23-.788 2.557-.788 3.96 0 1.404.25 2.73.75 3.961a9.882 9.882 0 0 0 2.094 3.21c.884.904 1.98 1.635 3.249 2.154 1.268.538 2.671.807 4.17.807 4.345 0 7.035-1.98 8.65-3.825l-3.69-2.807c-.77.922-2.614 2.172-4.921 2.172-1.442 0-2.633-.327-3.537-1-.903-.653-1.518-1.576-1.845-2.71l-.058-.173h15.281v-1.827Zm-15.242-1.788c0-1.422 1.634-3.903 5.151-3.922 3.518 0 5.17 2.48 5.17 3.903l-10.321.02Zm28.87 9.094a1.817 1.817 0 0 0-.404-.596 1.914 1.914 0 0 0-1.326-.558c-.27 0-.5.058-.73.154-.231.096-.423.23-.596.404a1.914 1.914 0 0 0-.557 1.327c0 .269.057.5.153.73.096.23.23.423.404.596a1.913 1.913 0 0 0 1.326.557c.27 0 .5-.057.73-.153.231-.096.423-.231.596-.404a1.914 1.914 0 0 0 .557-1.327c0-.25-.057-.5-.153-.73Zm-.308 1.346a1.503 1.503 0 0 1-.326.5c-.135.134-.308.25-.5.326a1.593 1.593 0 0 1-.615.116c-.212 0-.423-.039-.615-.116a1.504 1.504 0 0 1-.5-.326 1.504 1.504 0 0 1-.327-.5 1.594 1.594 0 0 1-.115-.616c0-.211.038-.422.115-.615.077-.192.192-.365.327-.5.134-.134.307-.25.5-.326.192-.077.384-.116.615-.116.211 0 .423.039.615.116.192.076.365.192.5.326.134.135.25.308.326.5.077.192.116.385.116.615 0 .231-.039.423-.116.616Zm-1.076-.443a.595.595 0 0 0 .365-.173c.096-.096.154-.23.154-.422 0-.212-.058-.366-.192-.481-.116-.116-.327-.173-.577-.173h-.846v2.172h.404v-.884h.288l.538.884h.423l-.557-.923Zm-.212-.326h-.48v-.616h.48c.058 0 .116.02.173.039.058.02.097.058.116.096.038.038.038.096.038.173 0 .077-.019.135-.038.173a.509.509 0 0 1-.116.096.561.561 0 0 1-.172.039Z"/></g><defs><clipPath id="a"><path fill="#fff" d="M0 0h76v30H0z"/></clipPath></defs></svg>
